!!!OTL: Saira
!!!ONR: No. 10
!! From Jaap Kunst "Music in New Guinea; Three Studies"
!! Verhandelingen van het Koninkluijk Instituut voor Taal-,
!! Land- end Volkenkunde, Deel 53
!! English translation and correction by Jeune Scott-Kemball
!! Publication Place: 'S-Gravenhage
!! Publisher: Martinus Nijhoff, 1967
!! From Chapter II: Songs of New Guinea, page 91
!!PLACE: Pacifica, New Guinea, Warope\n Coast
!!SINGER: Aidiri
!!!PSX: M
!!!ENCODER: D. Huron
!! I=waver/trill/vibrato
**kern
*clefF4
*k[b-e-]
*MX
*>2nd strophe
8BB-
8D
=1
4D
4F
8F
8.D
12F
12D
12BB-
8BB-
=2
8D
4D
12E-
12D
12BB-
=3
8D
(8D
8E-)
(8D
8E-)
8D
qd
4.BB-
=4
([4D
12D]
12E-
12D
2BB-)
=5||
*>3rd strophe
8BB-
8D
=6
4D
4F
8F
8.D
12E-
12D
12BB-
8BB-
=7
4D
8.F
16E-
8D
4BB-
8D
=8
4D
8.D
16E-
8D
4BB-
8BB-
=9
8.BB-
16C
8BB-
8BB-
2BB-
=10||
*>5th strophe
*M6/8
8BB-
8D
=11
4.D
4F
8F
=12
4.A
8F,
8F
8F
=13
qF
4.D
8F,
8F
8F
=14
4D
(16F
16D
4BB-)
8BB-
=15
4.D
8F
8F
8F
=16
4D
(16F
16D
4BB-)
8D
=17
4D
(16F
16D
8F)
8F
8E-
=18
8.D
8.BB-
4D
8D
=19
[4D
16D]
16F
4D
8BB-
=20
[4.BB-
4BB-]
8r
=21
[4.D
8D
8F
8D
=22
[4.BB-I
8BB-]
=23||
*>6th strophe
*M6/8
8BB-
8D
=24
4.D
8F
8F
8F
=25
4.D
4BB-
8BB-
=26
4.DI
4F
8E-
=27
4D
(16F
16D
4BB-)
8D
=28
4DI
8E-
8D
8E-
8D
=29
[4.BB-
4BB-]
8BB-
=30
[4.BB-
4BB-]
8BB-
=31
[4.BB-I
8BB-]
==|!
*-
